X: 5767
T: Cailroe Ramblers
R: jig
M: 6/8
K: Gmajor
|:EAA GAB|E/F/GE DB,A,|AGE cBA|BGE DAB|
cBA BAG|AGE cde|A/_B/=BA GEA|GEB A3:|
cBA e2 f|gdc BAG|cBA e/f/ed|eag a2 b|
c'ba ega|bag dcB|cBA Bed|EA^G A3|
cBA e/f/ef|gdc BAG|EAB c/e/cd|eag a2 b|
c'ba bag|age dBe|A/_B/=BA GEA|GEB A3||

